img/rocket.svg

<svg width="100" height="100" viewBox="0 0 100 100" fill="none" xmlns="http://www.w3.org/2000/svg">
<g clip-path="url(#clip0_13_177)">
<path d="M82.3303 66.57L68.7903 56.42V38.48C68.7899 31.5114 67.0104 24.6583 63.6203 18.57L54.6203 2.32996C54.2251 1.62422 53.6489 1.03658 52.9511 0.627562C52.2533 0.218543 51.4591 0.00292969 50.6503 0.00292969C49.8414 0.00292969 49.0472 0.218543 48.3494 0.627562C47.6516 1.03658 47.0754 1.62422 46.6803 2.32996L37.6803 18.57C34.2901 24.6583 32.5106 31.5114 32.5103 38.48V56.21L18.6003 66.57C18.0363 66.9949 17.5785 67.5446 17.2627 68.1762C16.947 68.8077 16.7818 69.5039 16.7803 70.21V90.67C16.7821 91.5141 17.0188 92.3411 17.4637 93.0584C17.9087 93.7758 18.5445 94.3552 19.2999 94.7318C20.0554 95.1085 20.9007 95.2676 21.7414 95.1914C22.5821 95.1151 23.385 94.8064 24.0603 94.3L34.8403 86.21H48.3803V98C48.3803 98.5304 48.591 99.0391 48.9661 99.4142C49.3411 99.7893 49.8498 100 50.3803 100C50.9107 100 51.4194 99.7893 51.7945 99.4142C52.1696 99.0391 52.3803 98.5304 52.3803 98V86.21H66.0903L76.8803 94.3C77.6617 94.8952 78.618 95.2151 79.6003 95.21C80.8053 95.21 81.9611 94.732 82.8141 93.8808C83.6671 93.0297 84.1476 91.875 84.1503 90.67V70.21C84.1511 69.5035 83.9869 68.8065 83.671 68.1746C83.355 67.5427 82.8959 66.9932 82.3303 66.57ZM31.0003 84.12L21.6903 91.12C21.5944 91.1901 21.479 91.2286 21.3603 91.23C21.2161 91.23 21.0777 91.1734 20.9749 91.0724C20.872 90.9714 20.8129 90.8341 20.8103 90.69V70.21C20.811 70.1247 20.8312 70.0408 20.8694 69.9645C20.9075 69.8883 20.9625 69.8217 21.0303 69.77L31.0003 62.3V84.12ZM64.8203 76.76V82.21H52.3803V70.73C52.3803 70.1995 52.1696 69.6908 51.7945 69.3158C51.4194 68.9407 50.9107 68.73 50.3803 68.73C49.8498 68.73 49.3411 68.9407 48.9661 69.3158C48.591 69.6908 48.3803 70.1995 48.3803 70.73V82.21H36.3803V38.48C36.3792 32.1802 37.9866 25.9846 41.0503 20.48L50.0503 4.23996C50.1105 4.15017 50.1954 4.07973 50.2948 4.03714C50.3941 3.99455 50.5037 3.98164 50.6103 3.99996C50.7018 3.99801 50.7921 4.0223 50.8703 4.06996C50.9589 4.11852 51.0317 4.19138 51.0803 4.27996L60.1303 20.52C63.1904 26.0255 64.7944 32.2211 64.7903 38.52L64.8203 76.76ZM80.1503 90.67C80.1477 90.8141 80.0886 90.9514 79.9857 91.0524C79.8828 91.1534 79.7444 91.21 79.6003 91.21C79.4843 91.21 79.3717 91.1713 79.2803 91.1L69.9703 84.1V62.3L79.9703 69.77C80.038 69.8217 80.0931 69.8883 80.1312 69.9645C80.1693 70.0408 80.1895 70.1247 80.1903 70.21L80.1503 90.67Z" fill="#333333"/>
<path d="M50.61 29.3C49.2612 29.3 47.9426 29.7 46.8211 30.4494C45.6995 31.1988 44.8254 32.264 44.3092 33.5101C43.793 34.7563 43.6579 36.1276 43.9211 37.4506C44.1842 38.7735 44.8338 39.9887 45.7876 40.9425C46.7414 41.8963 47.9566 42.5459 49.2795 42.809C50.6025 43.0722 51.9738 42.9371 53.2199 42.4209C54.4661 41.9047 55.5313 41.0306 56.2807 39.909C57.0301 38.7875 57.43 37.4689 57.43 36.12C57.43 34.3113 56.7115 32.5766 55.4325 31.2976C54.1535 30.0186 52.4188 29.3 50.61 29.3ZM50.61 38.93C50.0519 38.93 49.5063 38.7644 49.0423 38.4541C48.5783 38.1438 48.2169 37.7028 48.0038 37.1869C47.7906 36.671 47.7354 36.1035 47.845 35.5562C47.9546 35.0089 48.2242 34.5065 48.6196 34.1125C49.0149 33.7185 49.5184 33.4507 50.066 33.343C50.6137 33.2353 51.181 33.2926 51.6962 33.5076C52.2113 33.7226 52.651 34.0856 52.9597 34.5506C53.2683 35.0157 53.432 35.5619 53.43 36.12C53.43 36.4899 53.357 36.8561 53.2152 37.1977C53.0734 37.5393 52.8655 37.8495 52.6035 38.1106C52.3415 38.3716 52.0305 38.5784 51.6885 38.719C51.3464 38.8597 50.9799 38.9314 50.61 38.93Z" fill="#333333"/>
</g>
<defs>
<clipPath id="clip0_13_177">
<rect width="100" height="100" fill="white"/>
</clipPath>
</defs>
</svg>

<svg width="100" height="100" fill="none" xmlns="http://www.w3.org/2000/svg"><g clip-path="url(#a)" fill="#333"><path d="M82.33 66.57 68.79 56.42V38.48a40.93 40.93 0 0 0-5.17-19.91l-9-16.24a4.55 4.55 0 0 0-7.94 0l-9 16.24a40.929 40.929 0 0 0-5.17 19.91v17.73L18.6 66.57a4.57 4.57 0 0 0-1.82 3.64v20.46a4.55 4.55 0 0 0 7.28 3.63l10.78-8.09h13.54V98a2 2 0 0 0 4 0V86.21h13.71l10.79 8.09a4.45 4.45 0 0 0 2.72.91 4.55 4.55 0 0 0 4.55-4.54V70.21a4.54 4.54 0 0 0-1.82-3.64ZM31 84.12l-9.31 7a.55.55 0 0 1-.88-.43V70.21a.558.558 0 0 1 .22-.44L31 62.3v21.82Zm33.82-7.36v5.45H52.38V70.73a2 2 0 1 0-4 0v11.48h-12V38.48a36.999 36.999 0 0 1 4.67-18l9-16.24a.56.56 0 0 1 .56-.24.48.48 0 0 1 .26.07.53.53 0 0 1 .21.21l9.05 16.24a37 37 0 0 1 4.66 18l.03 38.24Zm15.33 13.91a.55.55 0 0 1-.55.54.52.52 0 0 1-.32-.11l-9.31-7V62.3l10 7.47a.56.56 0 0 1 .22.44l-.04 20.46Z"/><path d="M50.61 29.3a6.82 6.82 0 1 0 0 13.64 6.82 6.82 0 0 0 0-13.64Zm0 9.63a2.82 2.82 0 1 1 2.82-2.81 2.81 2.81 0 0 1-2.82 2.81Z"/></g><defs><clipPath id="a"><path fill="#fff" d="M0 0h100v100H0z"/></clipPath></defs></svg>
